Gruvbox-Material-Icons/apps/scalable/system-reboot-alt1.svg

<svg width="256" height="256" style="isolation:isolate" version="1.1" viewBox="0 0 256 256" xmlns="http://www.w3.org/2000/svg">
  <g filter="url(#ItwpvbQziiONbOrTGeSbV4m1RhhzTM7l)">
    <linearGradient id="_lgradient_28" x2="-1.837e-16" y2="1" gradientTransform="matrix(244.6 0 0 228.3 5.68 11.95)" gradientUnits="userSpaceOnUse">
      <stop stop-color="#504945" offset="1e-7"/>
      <stop stop-color="#3c3836" offset="1"/>
    </linearGradient>
    <path d="m165.7 11.95c74.06 0 84.64 10.56 84.64 84.54v59.25c0 73.99-10.58 84.54-84.64 84.54h-75.37c-74.06 0-84.64-10.56-84.64-84.54v-59.25c0-73.99 10.58-84.54 84.64-84.54h75.37z" fill="url(#_lgradient_28)"/>
  </g>
  <g opacity=".4">
    <linearGradient id="_lgradient_29" x1=".5167" x2=".5167" y2="1" gradientTransform="matrix(244.6 0 0 228.3 5.68 11.95)" gradientUnits="userSpaceOnUse">
      <stop stop-color="#ebdbb2" offset="0"/>
      <stop stop-color="#ebdbb2" stop-opacity=".09804" offset=".125"/>
      <stop stop-color="#282828" stop-opacity=".09804" offset=".925"/>
      <stop stop-color="#282828" stop-opacity=".498" offset="1"/>
    </linearGradient>
    <path d="m165.1 11.95c4.328-0.01 8.656 0.04 12.98 0.138 3.875 0.078 7.751 0.226 11.63 0.452 3.453 0.196 6.905 0.481 10.35 0.854 3.059 0.335 6.118 0.786 9.148 1.346 2.715 0.502 5.4 1.14 8.046 1.916 2.4 0.698 4.751 1.562 7.023 2.584 2.115 0.943 4.141 2.063 6.059 3.35 1.84 1.238 3.561 2.653 5.135 4.215 1.564 1.572 2.98 3.282 4.219 5.119 1.289 1.916 2.41 3.94 3.364 6.042 1.023 2.28 1.889 4.618 2.597 7.005 0.777 2.643 1.417 5.325 1.918 8.037 0.561 3.026 1.013 6.072 1.348 9.127 0.374 3.439 0.659 6.878 0.856 10.33 0.226 3.861 0.373 7.732 0.462 11.59 0.088 4.323 0.138 8.646 0.128 12.96v58.21c0.01 4.323-0.04 8.636-0.128 12.96-0.089 3.871-0.236 7.732-0.462 11.59-0.197 3.448-0.482 6.897-0.856 10.33-0.335 3.055-0.787 6.111-1.348 9.137-0.501 2.702-1.141 5.384-1.918 8.027-0.708 2.387-1.574 4.735-2.597 7.005-0.954 2.112-2.075 4.126-3.364 6.042-1.239 1.837-2.655 3.557-4.219 5.119-1.574 1.562-3.295 2.977-5.135 4.215-1.918 1.287-3.944 2.407-6.059 3.35-2.272 1.022-4.623 1.886-7.023 2.594-2.646 0.776-5.331 1.414-8.046 1.906-3.03 0.569-6.089 1.011-9.148 1.346-3.443 0.373-6.895 0.658-10.35 0.854-3.875 0.226-7.751 0.374-11.63 0.462-4.328 0.088-8.656 0.138-12.98 0.128h-74.13c-4.328 0.01-8.656-0.04-12.98-0.128-3.875-0.088-7.751-0.236-11.63-0.462-3.453-0.196-6.905-0.481-10.35-0.854-3.059-0.335-6.118-0.777-9.148-1.346-2.715-0.492-5.4-1.13-8.046-1.906-2.4-0.708-4.751-1.572-7.023-2.594-2.115-0.943-4.141-2.063-6.059-3.35-1.84-1.238-3.561-2.653-5.135-4.215-1.564-1.562-2.98-3.282-4.219-5.119-1.289-1.916-2.41-3.93-3.364-6.042-1.023-2.27-1.889-4.618-2.597-7.005-0.777-2.643-1.417-5.325-1.918-8.027-0.561-3.026-1.013-6.082-1.348-9.137-0.374-3.429-0.659-6.878-0.856-10.33-0.226-3.861-0.373-7.722-0.462-11.59-0.088-4.323-0.138-8.636-0.128-12.96v-58.21c-0.01-4.313 0.04-8.636 0.128-12.96 0.089-3.861 0.236-7.732 0.462-11.59 0.197-3.448 0.482-6.887 0.856-10.33 0.335-3.055 0.787-6.101 1.348-9.127 0.501-2.712 1.141-5.394 1.918-8.037 0.708-2.387 1.574-4.725 2.597-7.005 0.954-2.102 2.075-4.126 3.364-6.042 1.239-1.837 2.655-3.547 4.219-5.119 1.574-1.562 3.295-2.977 5.135-4.215 1.918-1.287 3.944-2.407 6.059-3.35 2.272-1.022 4.623-1.886 7.023-2.584 2.646-0.776 5.331-1.414 8.046-1.916 3.03-0.56 6.089-1.011 9.148-1.346 3.443-0.373 6.895-0.658 10.35-0.854 3.875-0.226 7.751-0.374 11.63-0.452 4.328-0.098 8.656-0.148 12.98-0.138h74.13zm0.01 4.009c4.298-0.01 8.597 0.039 12.9 0.127 3.827 0.089 7.653 0.236 11.48 0.452 3.384 0.197 6.767 0.472 10.13 0.845 2.971 0.315 5.932 0.747 8.863 1.297 2.577 0.472 5.134 1.081 7.653 1.818 2.223 0.648 4.396 1.454 6.501 2.397 1.909 0.855 3.738 1.867 5.469 3.026 1.623 1.091 3.138 2.338 4.525 3.724 1.387 1.385 2.636 2.898 3.738 4.519 1.16 1.729 2.174 3.547 3.029 5.443 0.945 2.112 1.751 4.284 2.4 6.494 0.748 2.515 1.348 5.06 1.83 7.634 0.541 2.928 0.974 5.875 1.298 8.842 0.374 3.36 0.65 6.73 0.846 10.11 0.217 3.822 0.374 7.634 0.453 11.46 0.088 4.293 0.137 8.577 0.137 12.87v58.21c0 4.293-0.049 8.577-0.137 12.87-0.079 3.822-0.236 7.644-0.453 11.46-0.196 3.38-0.472 6.75-0.846 10.12-0.324 2.957-0.757 5.904-1.298 8.832-0.482 2.574-1.082 5.119-1.83 7.634-0.649 2.22-1.455 4.382-2.4 6.494-0.855 1.896-1.869 3.724-3.029 5.443-1.102 1.631-2.351 3.144-3.738 4.529-1.387 1.376-2.902 2.623-4.525 3.714-1.731 1.159-3.56 2.171-5.469 3.026-2.105 0.953-4.278 1.749-6.501 2.397-2.519 0.737-5.076 1.346-7.653 1.818-2.931 0.55-5.892 0.982-8.863 1.306-3.364 0.364-6.747 0.649-10.13 0.836-3.826 0.216-7.652 0.373-11.48 0.452-4.298 0.098-8.597 0.137-12.9 0.137h-0.01-74.13-0.01c-4.298 0-8.597-0.039-12.9-0.137-3.827-0.079-7.653-0.236-11.48-0.452-3.384-0.187-6.767-0.472-10.13-0.836-2.971-0.324-5.932-0.756-8.863-1.306-2.577-0.472-5.134-1.081-7.653-1.818-2.223-0.648-4.396-1.444-6.501-2.397-1.909-0.855-3.738-1.867-5.469-3.026-1.623-1.091-3.138-2.338-4.525-3.714-1.387-1.385-2.636-2.898-3.738-4.529-1.16-1.719-2.174-3.547-3.029-5.443-0.945-2.112-1.751-4.274-2.4-6.494-0.748-2.515-1.348-5.06-1.83-7.634-0.541-2.928-0.974-5.875-1.298-8.832-0.374-3.37-0.649-6.74-0.846-10.12-0.217-3.812-0.374-7.634-0.453-11.46-0.088-4.293-0.137-8.577-0.137-12.87v-58.21c0-4.293 0.049-8.577 0.137-12.87 0.079-3.822 0.236-7.634 0.453-11.46 0.197-3.38 0.472-6.75 0.846-10.11 0.324-2.967 0.757-5.914 1.298-8.842 0.482-2.574 1.082-5.119 1.83-7.634 0.649-2.21 1.455-4.382 2.4-6.494 0.855-1.896 1.869-3.714 3.029-5.443 1.102-1.621 2.351-3.134 3.738-4.519 1.387-1.386 2.902-2.633 4.525-3.724 1.731-1.159 3.56-2.171 5.469-3.026 2.105-0.943 4.278-1.749 6.501-2.397 2.519-0.737 5.076-1.346 7.653-1.818 2.931-0.55 5.892-0.982 8.863-1.297 3.364-0.373 6.747-0.648 10.13-0.845 3.826-0.216 7.652-0.363 11.48-0.452 4.298-0.088 8.597-0.137 12.9-0.127h0.01 74.13 0.01z" fill="url(#_lgradient_29)" fill-rule="evenodd"/>
  </g>
  <g filter="url(#ry4EA2YNwmp7sBksOsssjfteNANXYHdm)" opacity=".4">
    <path d="m120.2 57.1c-15.66 1.629-29.84 8.217-40.95 18.17-14.9 13.34-24.27 32.72-24.27 54.29 0 40.23 32.62 72.85 72.85 72.85s72.85-32.62 72.85-72.85c0-5.301-0.566-10.47-1.641-15.45l-15.83 3.393c0.842 3.885 1.285 7.919 1.285 12.06 0 31.29-25.37 56.66-56.66 56.66s-56.66-25.37-56.66-56.66c0-17.62 8.038-33.35 20.65-43.74 7.994-6.59 17.83-11.03 28.61-12.44l0.223 15.88s23.5-10.02 42.62-24.24c0-4e-3 -3e-3 -7e-3 -6e-3 -0.012-2e-3 -5e-3 -5e-3 -0.011-8e-3 -0.016-4e-3 -5e-3 -7e-3 -0.01-0.01-0.015-3e-3 -6e-3 -6e-3 -0.01-6e-3 -0.015-20.58-14.11-43.25-22.95-43.25-22.95l0.212 15.1z" fill="#282828" fill-rule="evenodd"/>
  </g>
  <linearGradient id="_lgradient_30" x2="1" y1=".5" y2=".5" gradientTransform="matrix(145.7 0 0 160.4 55 38.6)" gradientUnits="userSpaceOnUse">
    <stop stop-color="#ffda2d" offset="0"/>
    <stop stop-color="#f5790b" offset="1"/>
  </linearGradient>
  <path d="m120.2 53.7c-15.66 1.629-29.84 8.217-40.95 18.17-14.9 13.34-24.27 32.72-24.27 54.29 0 40.23 32.62 72.85 72.85 72.85s72.85-32.62 72.85-72.85c0-5.301-0.566-10.47-1.641-15.45l-15.83 3.392c0.842 3.885 1.285 7.919 1.285 12.06 0 31.29-25.37 56.66-56.66 56.66s-56.66-25.37-56.66-56.66c0-17.62 8.038-33.35 20.65-43.74 7.994-6.59 17.83-11.03 28.61-12.44l0.223 15.88s23.5-10.02 42.62-24.24c0-5e-3 -3e-3 -8e-3 -6e-3 -0.013-2e-3 -5e-3 -5e-3 -0.01-8e-3 -0.016-4e-3 -4e-3 -7e-3 -0.01-0.01-0.015s-6e-3 -0.01-6e-3 -0.014c-20.58-14.11-43.25-22.95-43.25-22.95l0.212 15.1z" fill="url(#_lgradient_30)" fill-rule="evenodd"/>
</svg>

<?xml version="1.0" standalone="no"?><!-- Generator: Gravit.io --><svg xmlns="http://www.w3.org/2000/svg" xmlns:xlink="http://www.w3.org/1999/xlink" style="isolation:isolate" viewBox="0 0 256 256" width="256" height="256"><defs><filter id="ItwpvbQziiONbOrTGeSbV4m1RhhzTM7l" x="-200%" y="-200%" width="400%" height="400%" filterUnits="objectBoundingBox" color-interpolation-filters="sRGB"><feGaussianBlur xmlns="http://www.w3.org/2000/svg" in="SourceGraphic" stdDeviation="4.293609062839028"/><feOffset xmlns="http://www.w3.org/2000/svg" dx="0" dy="4" result="pf_100_offsetBlur"/><feFlood xmlns="http://www.w3.org/2000/svg" flood-color="#282828" flood-opacity="0.4"/><feComposite xmlns="http://www.w3.org/2000/svg" in2="pf_100_offsetBlur" operator="in" result="pf_100_dropShadow"/><feBlend xmlns="http://www.w3.org/2000/svg" in="SourceGraphic" in2="pf_100_dropShadow" mode="normal"/></filter></defs><g filter="url(#ItwpvbQziiONbOrTGeSbV4m1RhhzTM7l)"><linearGradient id="_lgradient_28" x1="0" y1="0" x2="-1.8369701987210297e-16" y2="1" gradientTransform="matrix(244.648,0,0,228.338,5.68,11.952)" gradientUnits="userSpaceOnUse"><stop offset="0.000009999999999999999%" stop-opacity="1" style="stop-color:#504945"/><stop offset="100%" stop-opacity="1" style="stop-color:#3c3836"/></linearGradient><path d=" M 165.689 11.952 C 239.745 11.952 250.328 22.509 250.328 96.495 L 250.328 155.746 C 250.328 229.733 239.745 240.29 165.689 240.29 L 90.319 240.29 C 16.264 240.29 5.68 229.733 5.68 155.746 L 5.68 96.495 C 5.68 22.509 16.264 11.952 90.319 11.952 L 165.689 11.952 Z " id="shape" fill="url(#_lgradient_28)"/></g><g opacity="0.4"><linearGradient id="_lgradient_29" x1="0.5166666666666668" y1="0" x2="0.5166666666666666" y2="1.0000000000000002" gradientTransform="matrix(244.65,0,0,228.34,5.68,11.95)" gradientUnits="userSpaceOnUse"><stop offset="0%" stop-opacity="1" style="stop-color:#ebdbb2"/><stop offset="12.5%" stop-opacity="0.09803922" style="stop-color:#ebdbb2"/><stop offset="92.500001%" stop-opacity="0.09803922" style="stop-color:#282828"/><stop offset="100%" stop-opacity="0.49803922" style="stop-color:#282828"/></linearGradient><path d=" M 165.068 11.951 C 169.396 11.941 173.724 11.991 178.052 12.089 C 181.927 12.167 185.803 12.315 189.678 12.541 C 193.131 12.737 196.583 13.022 200.026 13.395 C 203.085 13.73 206.144 14.181 209.174 14.741 C 211.889 15.243 214.574 15.881 217.22 16.657 C 219.62 17.355 221.971 18.219 224.243 19.241 C 226.358 20.184 228.384 21.304 230.302 22.591 C 232.142 23.829 233.863 25.244 235.437 26.806 C 237.001 28.378 238.417 30.088 239.656 31.925 C 240.945 33.841 242.066 35.865 243.02 37.967 C 244.043 40.247 244.909 42.585 245.617 44.972 C 246.394 47.615 247.034 50.297 247.535 53.009 C 248.096 56.035 248.548 59.081 248.883 62.136 C 249.257 65.575 249.542 69.014 249.739 72.462 C 249.965 76.323 250.112 80.194 250.201 84.055 C 250.289 88.378 250.339 92.701 250.329 97.014 L 250.329 155.226 C 250.339 159.549 250.289 163.862 250.201 168.185 C 250.112 172.056 249.965 175.917 249.739 179.778 C 249.542 183.226 249.257 186.675 248.883 190.104 C 248.548 193.159 248.096 196.215 247.535 199.241 C 247.034 201.943 246.394 204.625 245.617 207.268 C 244.909 209.655 244.043 212.003 243.02 214.273 C 242.066 216.385 240.945 218.399 239.656 220.315 C 238.417 222.152 237.001 223.872 235.437 225.434 C 233.863 226.996 232.142 228.411 230.302 229.649 C 228.384 230.936 226.358 232.056 224.243 232.999 C 221.971 234.021 219.62 234.885 217.22 235.593 C 214.574 236.369 211.889 237.007 209.174 237.499 C 206.144 238.068 203.085 238.51 200.026 238.845 C 196.583 239.218 193.131 239.503 189.678 239.699 C 185.803 239.925 181.927 240.073 178.052 240.161 C 173.724 240.249 169.396 240.299 165.068 240.289 L 90.942 240.289 C 86.614 240.299 82.286 240.249 77.958 240.161 C 74.083 240.073 70.207 239.925 66.332 239.699 C 62.879 239.503 59.427 239.218 55.984 238.845 C 52.925 238.51 49.866 238.068 46.836 237.499 C 44.121 237.007 41.436 236.369 38.79 235.593 C 36.39 234.885 34.039 234.021 31.767 232.999 C 29.652 232.056 27.626 230.936 25.708 229.649 C 23.868 228.411 22.147 226.996 20.573 225.434 C 19.009 223.872 17.593 222.152 16.354 220.315 C 15.065 218.399 13.944 216.385 12.99 214.273 C 11.967 212.003 11.101 209.655 10.393 207.268 C 9.616 204.625 8.976 201.943 8.475 199.241 C 7.914 196.215 7.462 193.159 7.127 190.104 C 6.753 186.675 6.468 183.226 6.271 179.778 C 6.045 175.917 5.898 172.056 5.809 168.185 C 5.721 163.862 5.671 159.549 5.681 155.226 L 5.681 97.014 C 5.671 92.701 5.721 88.378 5.809 84.055 C 5.898 80.194 6.045 76.323 6.271 72.462 C 6.468 69.014 6.753 65.575 7.127 62.136 C 7.462 59.081 7.914 56.035 8.475 53.009 C 8.976 50.297 9.616 47.615 10.393 44.972 C 11.101 42.585 11.967 40.247 12.99 37.967 C 13.944 35.865 15.065 33.841 16.354 31.925 C 17.593 30.088 19.009 28.378 20.573 26.806 C 22.147 25.244 23.868 23.829 25.708 22.591 C 27.626 21.304 29.652 20.184 31.767 19.241 C 34.039 18.219 36.39 17.355 38.79 16.657 C 41.436 15.881 44.121 15.243 46.836 14.741 C 49.866 14.181 52.925 13.73 55.984 13.395 C 59.427 13.022 62.879 12.737 66.332 12.541 C 70.207 12.315 74.083 12.167 77.958 12.089 C 82.286 11.991 86.614 11.941 90.942 11.951 L 165.068 11.951 Z  M 165.078 15.96 C 169.376 15.95 173.675 15.999 177.973 16.087 C 181.8 16.176 185.626 16.323 189.452 16.539 C 192.836 16.736 196.219 17.011 199.583 17.384 C 202.554 17.699 205.515 18.131 208.446 18.681 C 211.023 19.153 213.58 19.762 216.099 20.499 C 218.322 21.147 220.495 21.953 222.6 22.896 C 224.509 23.751 226.338 24.763 228.069 25.922 C 229.692 27.013 231.207 28.26 232.594 29.646 C 233.981 31.031 235.23 32.544 236.332 34.165 C 237.492 35.894 238.506 37.712 239.361 39.608 C 240.306 41.72 241.112 43.892 241.761 46.102 C 242.509 48.617 243.109 51.162 243.591 53.736 C 244.132 56.664 244.565 59.611 244.889 62.578 C 245.263 65.938 245.539 69.308 245.735 72.688 C 245.952 76.51 246.109 80.322 246.188 84.144 C 246.276 88.437 246.325 92.721 246.325 97.014 C 246.325 97.014 246.325 97.014 246.325 97.014 L 246.325 155.226 C 246.325 155.226 246.325 155.226 246.325 155.226 C 246.325 159.519 246.276 163.803 246.188 168.096 C 246.109 171.918 245.952 175.74 245.735 179.552 C 245.539 182.932 245.263 186.302 244.889 189.672 C 244.565 192.629 244.132 195.576 243.591 198.504 C 243.109 201.078 242.509 203.623 241.761 206.138 C 241.112 208.358 240.306 210.52 239.361 212.632 C 238.506 214.528 237.492 216.356 236.332 218.075 C 235.23 219.706 233.981 221.219 232.594 222.604 C 231.207 223.98 229.692 225.227 228.069 226.318 C 226.338 227.477 224.509 228.489 222.6 229.344 C 220.495 230.297 218.322 231.093 216.099 231.741 C 213.58 232.478 211.023 233.087 208.446 233.559 C 205.515 234.109 202.554 234.541 199.583 234.865 C 196.219 235.229 192.836 235.514 189.452 235.701 C 185.626 235.917 181.8 236.074 177.973 236.153 C 173.675 236.251 169.376 236.29 165.078 236.29 C 165.078 236.29 165.078 236.29 165.068 236.29 L 90.942 236.29 C 90.932 236.29 90.932 236.29 90.932 236.29 C 86.634 236.29 82.335 236.251 78.037 236.153 C 74.21 236.074 70.384 235.917 66.558 235.701 C 63.174 235.514 59.791 235.229 56.427 234.865 C 53.456 234.541 50.495 234.109 47.564 233.559 C 44.987 233.087 42.43 232.478 39.911 231.741 C 37.688 231.093 35.515 230.297 33.41 229.344 C 31.501 228.489 29.672 227.477 27.941 226.318 C 26.318 225.227 24.803 223.98 23.416 222.604 C 22.029 221.219 20.78 219.706 19.678 218.075 C 18.518 216.356 17.504 214.528 16.649 212.632 C 15.704 210.52 14.898 208.358 14.249 206.138 C 13.501 203.623 12.901 201.078 12.419 198.504 C 11.878 195.576 11.445 192.629 11.121 189.672 C 10.747 186.302 10.472 182.932 10.275 179.552 C 10.058 175.74 9.901 171.918 9.822 168.096 C 9.734 163.803 9.685 159.519 9.685 155.226 C 9.685 155.226 9.685 155.226 9.685 155.226 L 9.685 97.014 C 9.685 97.014 9.685 97.014 9.685 97.014 C 9.685 92.721 9.734 88.437 9.822 84.144 C 9.901 80.322 10.058 76.51 10.275 72.688 C 10.472 69.308 10.747 65.938 11.121 62.578 C 11.445 59.611 11.878 56.664 12.419 53.736 C 12.901 51.162 13.501 48.617 14.249 46.102 C 14.898 43.892 15.704 41.72 16.649 39.608 C 17.504 37.712 18.518 35.894 19.678 34.165 C 20.78 32.544 22.029 31.031 23.416 29.646 C 24.803 28.26 26.318 27.013 27.941 25.922 C 29.672 24.763 31.501 23.751 33.41 22.896 C 35.515 21.953 37.688 21.147 39.911 20.499 C 42.43 19.762 44.987 19.153 47.564 18.681 C 50.495 18.131 53.456 17.699 56.427 17.384 C 59.791 17.011 63.174 16.736 66.558 16.539 C 70.384 16.323 74.21 16.176 78.037 16.087 C 82.335 15.999 86.634 15.95 90.932 15.96 C 90.932 15.96 90.932 15.96 90.942 15.96 L 165.068 15.96 C 165.078 15.96 165.078 15.96 165.078 15.96 Z " fill-rule="evenodd" id="highlight" fill="url(#_lgradient_29)"/></g><defs><filter id="ry4EA2YNwmp7sBksOsssjfteNANXYHdm" x="-200%" y="-200%" width="400%" height="400%" filterUnits="objectBoundingBox" color-interpolation-filters="sRGB"><feGaussianBlur xmlns="http://www.w3.org/2000/svg" stdDeviation="4.293609062839028"/></filter></defs><g opacity="0.4" filter="url(#ry4EA2YNwmp7sBksOsssjfteNANXYHdm)"><path d=" M 120.22 57.098 C 104.564 58.727 90.381 65.315 79.271 75.264 L 79.271 75.264 C 64.374 88.603 55 107.983 55 129.553 C 55 169.787 87.616 202.403 127.85 202.403 C 168.084 202.403 200.7 169.787 200.7 129.553 C 200.7 124.252 200.134 119.084 199.059 114.104 L 183.226 117.497 C 184.068 121.382 184.511 125.416 184.511 129.553 C 184.511 160.846 159.143 186.214 127.85 186.214 C 96.557 186.214 71.189 160.846 71.189 129.553 C 71.189 111.938 79.227 96.201 91.835 85.809 C 99.829 79.219 109.662 74.778 120.448 73.371 L 120.671 89.247 C 120.671 89.247 144.173 79.23 163.292 65.005 C 163.292 65.001 163.289 64.998 163.286 64.993 C 163.284 64.988 163.281 64.982 163.278 64.977 C 163.274 64.972 163.271 64.967 163.268 64.962 C 163.265 64.956 163.262 64.952 163.262 64.947 C 142.687 50.835 120.008 42 120.008 42 L 120.22 57.098 Z " fill-rule="evenodd" id="reboot" fill="#282828"/></g><linearGradient id="_lgradient_30" x1="0" y1="0.5" x2="1" y2="0.5" gradientTransform="matrix(145.7,0,0,160.403,55,38.597)" gradientUnits="userSpaceOnUse"><stop offset="0%" stop-opacity="1" style="stop-color:#ffda2d"/><stop offset="100%" stop-opacity="1" style="stop-color:#f5790b"/></linearGradient><path d=" M 120.22 53.695 C 104.564 55.324 90.381 61.912 79.271 71.861 L 79.271 71.861 C 64.374 85.2 55 104.58 55 126.15 C 55 166.384 87.616 199 127.85 199 C 168.084 199 200.7 166.384 200.7 126.15 C 200.7 120.849 200.134 115.681 199.059 110.702 L 183.226 114.094 C 184.068 117.979 184.511 122.013 184.511 126.15 C 184.511 157.443 159.143 182.811 127.85 182.811 C 96.557 182.811 71.189 157.443 71.189 126.15 C 71.189 108.535 79.227 92.798 91.835 82.406 C 99.829 75.816 109.662 71.375 120.448 69.968 L 120.671 85.844 C 120.671 85.844 144.173 75.827 163.292 61.603 C 163.292 61.598 163.289 61.595 163.286 61.59 C 163.284 61.585 163.281 61.58 163.278 61.574 C 163.274 61.57 163.271 61.564 163.268 61.559 C 163.265 61.554 163.262 61.549 163.262 61.545 C 142.687 47.432 120.008 38.597 120.008 38.597 L 120.22 53.695 Z " fill-rule="evenodd" id="reboot" fill="url(#_lgradient_30)"/></svg>
